!!! OTL: Berkowitz283
!!! Chapter: 1
!!! Section: II
!!! Page: 67
!!! Mode: 
!!! Encoder: DJB
**kern
*staff1
*I"Piano
=1-
*clefG2
*k[]
*G:
*M3/4
4dd\
8b\L
8dd\J
4ee\
=2
4dd\
8b/L
8g/J
4a/
=3
4b\
8dd\L
8ee\J
8ff\L
8ee\J
=4
4dd\
8b/L
8a/J
4g/
=5
4f/
8a\L
8cc\J
4b\
=6
4a/
8cc\L
8ee\J
4dd\
=7
4cc\
4a/
4f/
=8
4e/
4g/
4dd\
=9
4r
8cc\L
8a\J
4f/
=10
!!linebreak:original
2.g/
==
*-
